X: 106
T:Germans I
M:4/4
K:D
F:http://blackrosetheband.googlepages.com/ABCTUNES.ABC May 2009
L:1/8
FG|:"D"AFAd f2 f2|AFAd f2 ef|"G"gfed c2 d2|"A"(3efe (3dcB A2 FG|
"D"AFAdf2 f2|AFAd f2 ef|"G"gfed "A"cABc|1 "D"d2 f2 d2 FG:|2 "D"d2 f2 d2 d2||
|:"D"fgaf d2 d2|fgaf d2 ef|"G"gfedc2 d2|"A"(3efe (3dcB A2 A2|
"D"fgaf d2 d2|fgaf d2 ef|"G"gfed "A"cABc|1 "D"d2 f2 d2 d2:|2 "D"d2 f2 d2 FG||

